//Ben Scheele
//1-3-10

size{ s 67 67 }

startshape moire

rule moire{
	10*[r 1 s .99 b .1 alpha -.1 z 1] array{ r 45 }
}
rule array{
	grid1{ }
	grid2{ }
}

rule grid1{
	100*{ x 1 } CIRCLE{ s .5 x -49  }
	grid1{ y 1 s .9802 alpha -.005 }
}

rule grid2{
	grid1{ flip 0 }
}