startshape HORN
background { b -0.1; h 220; sat 0.7 }

rule THORN {
	CIRCLE {}
	THORN {h -20  s 0.95 y 0.3 }
}

rule THORNS {
	THORN {}
	THORNS {h 2.49 sat 0.5116 s 25 r -85 y 6.2 }
	THORNS {h 2.49 sat 0.5116 s 25 r 85 y 6.2 }
	THORNS {h 2.49 sat 0.5116 s 25 y 6.2 }
}

rule HORN {
	THORNS {r 25}
	THORNS {r 35}
	THORNS {r 25}
	THORNS {r 15}
}